X:1
T:Title
%%score 1 2 3
L:1/8
M:6/4
K:G
V:1 treble nm="Choir Aahs, Staff"
V:2 treble nm="Synth Voice, Staff-1"
V:3 bass nm="Voice Oohs, Staff-2"
V:1
 G4 A2 B4 d2 | d4 d2 d6 | B4 d2 B4 G2 | d4 e2 d6 | B4 d2 B4 B2 | d2 c2 B2 A6 | d4 d2 B4 B2 | %7
w: By~207th~Hymn~in~the~Psalmist~(Sacred~Harp~81b) * * *|||||||
 G4 A2 B6- | B12 |] %9
w: ||
V:2
 G4 A2 G4 A2 | B4 Ac B6 | G4 B2 d4 G2 | A4 B2 A6 | d4 B2 e4 d2 | B2 A2 G2 d6 | G4 B2 d4 ed | %7
 B4 A2 G6- | G12 |] %9
V:3
 G,4 [F,A,]2 G,4 D,2 | B,,4 D,2 G,6 | G,4 A,2 B,4 A,G, | D,4 D,2 D,6 | G,4 D,2 E,4 G,2 | %5
 G,2 F,2 E,2 D,6 | G,4 E,2 D,4 D,2 | E,4 D,2 G,6- | G,12 |] %9

